X: 2226
Q: "Reel."
M: C
L: 1/8
K: Ador
(ugf) |\
eA (3(cBA) eA (3(cBA) | Bdef gedB |\
eA (3(cBA) eA (3(cBA) | Bdef g2(fg) |\
afge dfed | cAB^G A2 :|
|: (ufg) |\
a2(a^g) a2(ed) | cdef gfge |\
a2a^g a2ed | cdef g2(fg) |\
afge dfed | cAB^G A2 :|


